Newaita-dark/actions/32/audio-volume-medium.svg

<svg height="32" viewBox="0 0 32 32" width="32" xmlns="http://www.w3.org/2000/svg"><g fill="#e0e0e0"><path d="m14.550781 2.902344c-.011719 0-.023437 0-.035156 0-.378906.011718-.730469.183594-.972656.472656l-6.222657 7.464844h-.042968v10.574218h.042968l6.222657 7.460938c.355469.425781.9375.585938 1.457031.398438.523438-.191407.871094-.683594.871094-1.238282v-23.816406c0-.730469-.59375-1.320312-1.320313-1.316406zm-10.582031 7.9375c-.726562 0-1.316406.589844-1.316406 1.316406v7.9375c0 .730469.589844 1.320312 1.316406 1.320312h1.984375v-10.574218zm0 0"/><path d="m19.691406 9.375c-.585937-.015625-1.109375.359375-1.285156.914062-.179688.554688.027344 1.164063.511719 1.492188 1.367187.957031 2.257812 2.53125 2.257812 4.34375 0 1.816406-.890625 3.390625-2.257812 4.347656-.390625.265625-.609375.722656-.570313 1.195313.035156.476562.328125.890625.757813 1.089843.433593.199219.9375.148438 1.324219-.128906 2.046874-1.429687 3.378906-3.820312 3.378906-6.503906s-1.332032-5.070312-3.378906-6.5c-.214844-.15625-.472657-.242188-.738282-.25zm0 0"/><path d="m22.726562 5.035156c-.582031-.015625-1.105468.359375-1.285156.914063-.179687.558593.03125 1.164062.515625 1.492187 2.730469 1.910156 4.511719 5.070313 4.511719 8.683594 0 3.617188-1.78125 6.773438-4.511719 8.6875-.394531.265625-.613281.722656-.574219 1.195312.039063.472657.332032.890626.761719 1.089844.429688.199219.9375.148438 1.320313-.128906 3.414062-2.386719 5.636718-6.359375 5.636718-10.84375 0-4.480469-2.222656-8.453125-5.636718-10.839844-.214844-.15625-.472656-.242187-.738282-.25zm0 0" fill-opacity=".392157"/></g></svg>

<?xml version="1.0" encoding="UTF-8"?>
<svg xmlns="http://www.w3.org/2000/svg" xmlns:xlink="http://www.w3.org/1999/xlink" width="32px" height="32px" viewBox="0 0 32 32" version="1.1">
<g id="surface1">
<path style=" stroke:none;fill-rule:nonzero;fill:rgb(87.843138%,87.843138%,87.843138%);fill-opacity:1;" d="M 14.550781 2.902344 C 14.539062 2.902344 14.527344 2.902344 14.515625 2.902344 C 14.136719 2.914062 13.785156 3.085938 13.542969 3.375 L 7.320312 10.839844 L 7.277344 10.839844 L 7.277344 21.414062 L 7.320312 21.414062 L 13.542969 28.875 C 13.898438 29.300781 14.480469 29.460938 15 29.273438 C 15.523438 29.082031 15.871094 28.589844 15.871094 28.035156 L 15.871094 4.21875 C 15.871094 3.488281 15.277344 2.898438 14.550781 2.902344 Z M 3.96875 10.839844 C 3.242188 10.839844 2.652344 11.429688 2.652344 12.15625 L 2.652344 20.09375 C 2.652344 20.824219 3.242188 21.414062 3.96875 21.414062 L 5.953125 21.414062 L 5.953125 10.839844 Z M 3.96875 10.839844 "/>
<path style=" stroke:none;fill-rule:nonzero;fill:rgb(87.843138%,87.843138%,87.843138%);fill-opacity:1;" d="M 19.691406 9.375 C 19.105469 9.359375 18.582031 9.734375 18.40625 10.289062 C 18.226562 10.84375 18.433594 11.453125 18.917969 11.78125 C 20.285156 12.738281 21.175781 14.3125 21.175781 16.125 C 21.175781 17.941406 20.285156 19.515625 18.917969 20.472656 C 18.527344 20.738281 18.308594 21.195312 18.347656 21.667969 C 18.382812 22.144531 18.675781 22.558594 19.105469 22.757812 C 19.539062 22.957031 20.042969 22.90625 20.429688 22.628906 C 22.476562 21.199219 23.808594 18.808594 23.808594 16.125 C 23.808594 13.441406 22.476562 11.054688 20.429688 9.625 C 20.214844 9.46875 19.957031 9.382812 19.691406 9.375 Z M 19.691406 9.375 "/>
<path style=" stroke:none;fill-rule:nonzero;fill:rgb(87.843138%,87.843138%,87.843138%);fill-opacity:0.392157;" d="M 22.726562 5.035156 C 22.144531 5.019531 21.621094 5.394531 21.441406 5.949219 C 21.261719 6.507812 21.472656 7.113281 21.957031 7.441406 C 24.6875 9.351562 26.46875 12.511719 26.46875 16.125 C 26.46875 19.742188 24.6875 22.898438 21.957031 24.8125 C 21.5625 25.078125 21.34375 25.535156 21.382812 26.007812 C 21.421875 26.480469 21.714844 26.898438 22.144531 27.097656 C 22.574219 27.296875 23.082031 27.246094 23.464844 26.96875 C 26.878906 24.582031 29.101562 20.609375 29.101562 16.125 C 29.101562 11.644531 26.878906 7.671875 23.464844 5.285156 C 23.25 5.128906 22.992188 5.042969 22.726562 5.035156 Z M 22.726562 5.035156 "/>
</g>
</svg>
